X: 198
T:Tzlil Ha'emek
O:Israel/ Bulgaria
F: http://www.youtube.com/watch?v=8ZJKEaCJjPU
M:2/4
L:1/16
K:Edor
Q:1/4=88
%%MIDI program 21
{Bc}d4 {c}d3c|dcBA FAcd|\
B4 {A}B4     |dcBA dcBA|
d4 {c}d3c    |dcBA FAcd|\
dcBA FAcA    |B4z4     |
e4 d2e2      | z8      |\
e4 d2e2      | z8      |\
e4 d2e2      | z8      |\
e4 d2e2      |g4 f2e2  |
e4 d2e2      |g4 f2e2  |



